X: 1
T: Ashokan Farewell - D
M: 3/4
L: 1/8
R: waltz
K: Dmaj
Ac|:"D"d3c BA|"D/F#"F4 EF|"G"G3F ED|"Em"B,2D3B,|"D"A,2D2F2|
"D"FG||:A3 FD2|"D7"d4A2|"G"B3cd2|"D"AF3E2|F3ED2|"Bm"B,4G,2|

